X:1
T:Title
%%score { ( 1 3 ) | ( 2 4 ) }
L:1/8
Q:1/4=108
M:4/4
K:A
V:1 treble nm="Grand Piano"
V:3 treble 
V:2 bass 
V:4 bass 
V:1
 A2 E2 C2 E2 | A4 A4 | z4 d2 z2 | [EB]8 | [Ge]2 [EB]2 [EG]2 [E^A]2 | [^DB]4 z4 | %6
w: Hubert~P.~Main * * *||||||
 z F .[B,EG]2 [CEF]2 .[B,^DF]2 | [G,E]8 | [CA]3 [CA] [EA]2 B2 | d4 c4 | [Ee]3 [=Ge] [Fd]2 [^Dc]2 | %11
w: |||||
 [EB]8 | z2 c2 .d2 B2 | [Ee]4 [A,CA]4 | z2 c2 z4 | [CA]8 |] %16
w: |||||
V:2
 A,2 E,2 C,2 E,2 | A,4 [F,A,C]4 | [A,D][B,E] [C,A,]2 .[B,,F,]2 [A,,A,]2 | [E,G,]8 | %4
 [E,B,]2 [E,G,]2 [E,B,]2 [B,,F,]2 | F,2 z2 [E,G,E]4 | G,^A, z G, A,,2 z A, | E,8 | %8
 [A,,A,]3 [A,,A,] [C,A,]2 [E,G,E]2 | [A,F]4 [A,E]4 | [C,A,]3 [C,A,] [D,A,]2 [B,,A,]2 | [E,G,]8 | %12
 [C,G,]2 .[F,A,F]2 B,G,G,-[D,G,] | [C,A,]4 F,4 | z[K:treble] B[K:bass]A,-[D,A,] [E,A,D]2 [E,G,D]2 | %15
 [A,,A,]8 |] %16
V:3
 x8 | x8 | FG [EA]2 F[G,E] [Ec]2 | x8 | x8 | z2 A,2 B4 | E2 z2 z4 | x8 | x8 | x8 | x8 | x8 | %12
 [^Ec]2 z =E D-[Dc] z E | x8 | .[A,FA]2 EF B2 B2 | x8 |] %16
V:4
 x8 | x8 | D,2 z2 z4 | x8 | x8 | B,,4 z4 | C,2 B,,4 B,,2 | x8 | x8 | x8 | x8 | x8 | %12
 z4 B,,2 .[E,B,]2 | x8 | D,2[K:treble][K:bass] .C,2 z4 | x8 |] %16

